X: 9528
T: Darling Girl From Clare, The
R: hornpipe
M: 4/4
K: Dmajor
DE|F2 FF FE DE|F2 F4 F2|G3G G2 D2|F4z2DE|
F2 FF FE DE|F2 F4 F2|EB,-B,2 C3D|B,4z2F2|
A2 AA AG FG|A2 A4 A2|B2 G2 dB-B2|A4z2A2|
B3B Bc dB|AB AF DE FD|E2 B,2 C2 A,2|D4 z2 B2|
A3B d3B|AB AF DE FD|B,2 B,3 z FD|B,2 B,4 z2|
A3B d3B|AB AF DE FD|E2 E3 z F2|A2 A3 z A2|
B2 G2 D2 BB|AB AF DF AA|GG FF E2 D2|A4z2A2|
B2zc d3B|AB AF DE FD|E2B,2C2A,2|D6|

